round/svg/grid_on.svg

<svg xmlns="http://www.w3.org/2000/svg" width="24" height="24"><path fill="none" d="M0 0h24v24H0V0z"/><g fill="currentColor"><path d="M20 2H4c-1.1 0-2 .9-2 2v16c0 1.1.9 2 2 2h16c1.1 0 2-.9 2-2V4c0-1.1-.9-2-2-2zM8 20H5c-.55 0-1-.45-1-1v-3h4v4zm0-6H4v-4h4v4zm0-6H4V5c0-.55.45-1 1-1h3v4zm6 12h-4v-4h4v4zm0-6h-4v-4h4v4zm0-6h-4V4h4v4zm5 12h-3v-4h4v3c0 .55-.45 1-1 1zm1-6h-4v-4h4v4zm0-6h-4V4h3c.55 0 1 .45 1 1v3z"/></g></svg>

<?xml version="1.0" encoding="utf-8"?>
<!-- Generator: Adobe Illustrator 19.1.0, SVG Export Plug-In . SVG Version: 6.00 Build 0)  -->
<svg version="1.1" xmlns="http://www.w3.org/2000/svg" xmlns:xlink="http://www.w3.org/1999/xlink" x="0px" y="0px" width="24px"
	 height="24px" viewBox="0 0 24 24" enable-background="new 0 0 24 24" xml:space="preserve">
<g id="Bounding_Boxes">
	<g id="ui_x5F_spec_x5F_header_copy_3">
	</g>
	<path fill="none" d="M0,0h24v24H0V0z"/>
</g>
<g id="Rounded" fill="currentColor">
	<g id="ui_x5F_spec_x5F_header_copy_7">
	</g>
	<path d="M20,2H4C2.9,2,2,2.9,2,4v16c0,1.1,0.9,2,2,2h16c1.1,0,2-0.9,2-2V4C22,2.9,21.1,2,20,2z M8,20H5c-0.55,0-1-0.45-1-1v-3h4V20
		z M8,14H4v-4h4V14z M8,8H4V5c0-0.55,0.45-1,1-1h3V8z M14,20h-4v-4h4V20z M14,14h-4v-4h4V14z M14,8h-4V4h4V8z M19,20h-3v-4h4v3
		C20,19.55,19.55,20,19,20z M20,14h-4v-4h4V14z M20,8h-4V4h3c0.55,0,1,0.45,1,1V8z"/>
</g>
</svg>
